app/component-library/components/Icons/Icon/assets/edit.svg

<svg width="24" height="24" viewBox="0 0 24 24" fill="none" xmlns="http://www.w3.org/2000/svg">
<path d="M21.2808 22H3.28076C2.87076 22 2.53076 21.66 2.53076 21.25C2.53076 20.84 2.87076 20.5 3.28076 20.5H21.2808C21.6908 20.5 22.0308 20.84 22.0308 21.25C22.0308 21.66 21.6908 22 21.2808 22Z" fill="currentColor"/>
<path d="M19.3008 3.48016C17.3608 1.54016 15.4608 1.49016 13.4708 3.48016L12.2608 4.69016C12.1608 4.79016 12.1208 4.95016 12.1608 5.09016C12.9208 7.74016 15.0408 9.86016 17.6908 10.6202C17.7308 10.6302 17.7708 10.6402 17.8108 10.6402C17.9208 10.6402 18.0208 10.6002 18.1008 10.5202L19.3008 9.31016C20.2908 8.33016 20.7708 7.38016 20.7708 6.42016C20.7808 5.43016 20.3008 4.47016 19.3008 3.48016Z" fill="currentColor"/>
<path d="M15.8911 11.5298C15.6011 11.3898 15.3211 11.2498 15.0511 11.0898C14.8311 10.9598 14.6211 10.8198 14.4111 10.6698C14.2411 10.5598 14.0411 10.3998 13.8511 10.2398C13.8311 10.2298 13.7611 10.1698 13.6811 10.0898C13.3511 9.8098 12.9811 9.4498 12.6511 9.0498C12.6211 9.0298 12.5711 8.9598 12.5011 8.8698C12.4011 8.7498 12.2311 8.5498 12.0811 8.3198C11.9611 8.1698 11.8211 7.9498 11.6911 7.7298C11.5311 7.4598 11.3911 7.1898 11.2511 6.9098C11.2299 6.86441 11.2094 6.81924 11.1895 6.77434C11.0419 6.44102 10.6073 6.34358 10.3496 6.60133L4.62108 12.3298C4.49108 12.4598 4.37108 12.7098 4.34108 12.8798L3.80108 16.7098C3.70108 17.3898 3.89108 18.0298 4.31108 18.4598C4.67108 18.8098 5.17108 18.9998 5.71108 18.9998C5.83108 18.9998 5.95108 18.9898 6.07108 18.9698L9.91108 18.4298C10.0911 18.3998 10.3411 18.2798 10.4611 18.1498L16.1824 12.4285C16.4419 12.1689 16.344 11.7235 16.0064 11.5794C15.9684 11.5632 15.93 11.5467 15.8911 11.5298Z" fill="currentColor"/>
</svg>

<svg xmlns="http://www.w3.org/2000/svg" width="24" height="24" viewBox="0 0 24 24" fill="none"><path d="M21.28 22h-18c-.41 0-.75-.34-.75-.75s.34-.75.75-.75h18c.41 0 .75.34.75.75s-.34.75-.75.75zM19.3 3.48c-1.94-1.94-3.84-1.99-5.83 0l-1.21 1.21c-.1.1-.14.26-.1.4a8.129 8.129 0 0 0 5.53 5.53.4.4 0 0 0 .41-.1l1.2-1.21c.99-.98 1.47-1.93 1.47-2.89.01-.99-.47-1.95-1.47-2.94zM15.891 11.53c-.29-.14-.57-.28-.84-.44a8.8 8.8 0 0 1-.64-.42c-.17-.11-.37-.27-.56-.43a1.22 1.22 0 0 1-.17-.15c-.33-.28-.7-.64-1.03-1.04-.03-.02-.08-.09-.15-.18-.1-.12-.27-.32-.42-.55a5.49 5.49 0 0 1-.39-.59c-.16-.27-.3-.54-.44-.82a7.528 7.528 0 0 1-.061-.136c-.148-.333-.583-.43-.84-.173L4.62 12.33c-.13.13-.25.38-.28.55l-.54 3.83c-.1.68.09 1.32.51 1.75.36.35.86.54 1.4.54.12 0 .24-.01.36-.03l3.84-.54c.18-.03.43-.15.55-.28l5.721-5.721c.26-.26.162-.706-.176-.85a18.273 18.273 0 0 1-.115-.05z" fill="currentColor"/></svg>
